// test file for ControlMixer
c = ControlMixMaster( ["focus", "xstart", "ystart", "xcount", "ycount"], NetAddr("localhost", 57120) )

// c = ControlMixer( "/focus", NetAddr("localhost", 57120) );
// d = ControlMixer( "/test2", NetAddr("localhost", 57120) );


c.addMixer

OSCdef(\cmtest1, {|msg, time, addr, recvPort| msg.postln}, '/focus', n); // def style

OSCdef(\cmtest2, {|msg, time, addr, recvPort| msg.postln}, '/test2', n); // def style

to save, an array of controls to be mixed, each with:
\min, ctl.low
\max, ctl.high
\signal, ctl.lfo,
\rate, ctl.freq
\val, ctl.value
\scale, ctl.scale
\offset, ctl.offset
\mix, ctl.amp

c.ctlFades[0].lfo //symbol
c.ctlFades[0].freq
c.ctlFades[0].low
c.ctlFades[0].high
c.ctlFades[0].value
c.ctlFades[0].scale
c.ctlFades[0].offset
c.ctlFades[0].amp

c.addCtl(-1,3)